SVG/facebook.svg

<?xml version="1.0" encoding="utf-8"?>
<!-- Generated by IcoMoon.io -->
<!DOCTYPE svg PUBLIC "-//W3C//DTD SVG 1.1//EN" "http://www.w3.org/Graphics/SVG/1.1/DTD/svg11.dtd">
<svg version="1.1" xmlns="http://www.w3.org/2000/svg" xmlns:xlink="http://www.w3.org/1999/xlink" width="8" height="14" viewBox="0 0 8 14">
<path fill="#444444" d="M7.492 0.094v2.062h-1.227q-0.672 0-0.906 0.281t-0.234 0.844v1.477h2.289l-0.305 2.313h-1.984v5.93h-2.391v-5.93h-1.992v-2.313h1.992v-1.703q0-1.453 0.813-2.254t2.164-0.801q1.148 0 1.781 0.094z"></path>
</svg>

<svg xmlns="http://www.w3.org/2000/svg" viewBox="0 0 8 14"><path d="M7.492.094v2.062H6.265q-.672 0-.906.28t-.235.845V4.76h2.29L7.108 7.07H5.124V13h-2.39V7.07H.74V4.76h1.992V3.055q0-1.453.813-2.254T5.71 0q1.15 0 1.782.094z" /></svg>
